X:96
T:high on the mountain
R:
N:1/4
M:4/4
L:1/8
Q:1/4=80
K:Bminor
FA B>c decA| FA B>c BA F2|
FA B>c decd| e2 f>b bA f2|
de f>b ba f2 |c/b/c df f/e/d c2|
FA B>c decA|FA B2 f/e/d/c B2|
